X: 1799
T: Arabell Ó Mórdha
R: reel
M: 4/4
K: Gmajor
|:GEDE ~G3 A|BAGA BedB|GAAG ABAG|EAAG AcBA|
GEDE ~G3 A|BAGA BedB|GAAG AcBA|1 GEDE GABA:|2 GEDE ~G3 d||
|:~g3 d ~e3 d|~g3 d ~e3 d|GAAG ABAG|EAAG AcBA|
~g3 d ~e3 d|~g3 d ~e3 d|GAAG AcBA|1 GEDE GABd:|2 GEDE ~G3 A:|

